packages/gestalt-icons-android/vr-theme/ic_vr_pinterest_gestalt.svg

<svg width="24" height="24" viewBox="0 0 24 24" fill="none" xmlns="http://www.w3.org/2000/svg">
<path d="M7.54467 23.1456C7.39492 21.7804 7.49955 20.4758 7.79953 19.2157L8.99946 14.0408C8.80459 13.411 8.65436 12.6905 8.65436 11.9705C8.65436 10.2904 9.46455 9.09042 10.7394 9.09042C11.6244 9.09042 12.2695 9.70531 12.2695 10.8905C12.2695 11.2653 12.1946 11.6854 12.0444 12.1654L11.5193 13.8905C11.4142 14.2208 11.3696 14.5357 11.3696 14.8054C11.3696 16.0054 12.2844 16.6803 13.4546 16.6803C15.5395 16.6803 17.0246 14.5203 17.0246 11.7151C17.0246 8.59505 14.9847 6.60013 11.97 6.60013C8.6102 6.60013 6.48057 8.79042 6.48057 11.8351C6.48057 13.0649 6.85543 14.2049 7.59074 14.9849C7.35076 15.3901 7.09589 15.4649 6.70568 15.4649C5.50575 15.4649 4.36582 13.77 4.36582 11.4598C4.36582 7.46943 7.56051 4.28985 12.0454 4.28985C16.7548 4.28985 19.71 7.57503 19.71 11.6249C19.71 15.6747 16.8302 18.765 13.7253 18.765C12.4951 18.765 11.4152 18.2399 10.6654 17.2947L10.0506 19.785C9.72038 21.0748 9.22553 22.2902 8.43069 23.46C9.55575 23.8051 10.6654 24 12.0007 24C18.6301 24 24 18.6297 24 11.9998C24 5.36987 18.6291 0 11.9993 0C5.36944 0 0 5.37035 0 12.0002C0 17.0255 3.09005 21.3604 7.54467 23.1456Z" fill="black"/>
</svg>

<svg xmlns="http://www.w3.org/2000/svg" width="24" height="24"><path d="M7.54 23.15q-.2-2.05.26-3.93L9 14.04a7 7 0 0 1-.35-2.07c0-1.68.81-2.88 2.09-2.88.88 0 1.53.62 1.53 1.8q0 .57-.23 1.28l-.52 1.72q-.15.5-.15.92c0 1.2.91 1.87 2.08 1.87 2.09 0 3.57-2.16 3.57-4.96 0-3.12-2.04-5.12-5.05-5.12-3.36 0-5.49 2.19-5.49 5.24 0 1.22.38 2.36 1.11 3.14-.24.41-.5.48-.88.48-1.2 0-2.34-1.69-2.34-4 0-4 3.2-7.17 7.68-7.17 4.7 0 7.66 3.29 7.66 7.33s-2.88 7.15-5.98 7.15a3.8 3.8 0 0 1-3.06-1.48l-.62 2.5a11 11 0 0 1-1.62 3.67 12 12 0 1 0-.89-.31"/></svg>
